assets/ic_chat.svg

<svg width="40" height="40" fill="none" xmlns="http://www.w3.org/2000/svg"><rect rx="20" width="40" height="40" fill="#FF3E79"/><path d="M12 11h16c1.1 0 2 .9 2 2v11c0 1.1-.9 2-2 2H14l-4 5 .01-18c0-1.1.89-2 1.99-2Zm3 6h10c.55 0 1-.45 1-1s-.45-1-1-1H15c-.55 0-1 .45-1 1s.45 1 1 1Zm6 5h-6c-.55 0-1-.45-1-1s.45-1 1-1h6c.55 0 1 .45 1 1s-.45 1-1 1Z" clip-rule="evenodd" fill="#FFF" fill-rule="evenodd"/></svg>

<svg width="40.000000" height="40.000000" viewBox="0 0 40 40" fill="none" xmlns="http://www.w3.org/2000/svg" xmlns:xlink="http://www.w3.org/1999/xlink">
	<desc>
			Created with Pixso.
	</desc>
	<defs/>
	<rect id="back" rx="20.000000" width="40.000000" height="40.000000" fill="#FF3E79" fill-opacity="1.000000"/>
	<path id="icon" d="M12 11L28 11C29.1001 11 30 11.8999 30 13L30 24C30 25.1001 29.1001 26 28 26L14 26L10 31L10.01 13C10.01 11.8999 10.8999 11 12 11ZM15 17L25 17C25.55 17 26 16.55 26 16C26 15.45 25.55 15 25 15L15 15C14.45 15 14 15.45 14 16C14 16.55 14.45 17 15 17ZM21 22L15 22C14.45 22 14 21.55 14 21C14 20.45 14.45 20 15 20L21 20C21.55 20 22 20.45 22 21C22 21.55 21.55 22 21 22Z" clip-rule="evenodd" fill="#FFFFFF" fill-opacity="1.000000" fill-rule="evenodd"/>
	<mask id="mask0_1885" mask-type="alpha" maskUnits="userSpaceOnUse" x="10.000000" y="11.000000" width="20.000000" height="20.000000">
		<path id="icon" d="M12 11L28 11C29.1001 11 30 11.8999 30 13L30 24C30 25.1001 29.1001 26 28 26L14 26L10 31L10.01 13C10.01 11.8999 10.8999 11 12 11ZM15 17L25 17C25.55 17 26 16.55 26 16C26 15.45 25.55 15 25 15L15 15C14.45 15 14 15.45 14 16C14 16.55 14.45 17 15 17ZM21 22L15 22C14.45 22 14 21.55 14 21C14 20.45 14.45 20 15 20L21 20C21.55 20 22 20.45 22 21C22 21.55 21.55 22 21 22Z" clip-rule="evenodd" fill="#FFFFFF" fill-opacity="1.000000" fill-rule="evenodd"/>
	</mask>
</svg>
